src/static/b_cloud02.svg

<svg xmlns="http://www.w3.org/2000/svg" width="475" height="228" viewBox="0 0 475 228">
  <g fill="#fceccb" fill-rule="evenodd" opacity="1">
    <path d="M167.9359 12.9599C167.9359 19.9999 174.8479 25.7599 183.2959 25.7599L337.4079 25.7599C345.8559 25.7599 352.7679 19.9999 352.7679 12.9599 352.7679 5.9199 345.8559.1599 337.4079.1599L183.2959.1599C174.8479.1599 167.9359 5.9199 167.9359 12.9599M425.9837 61.5995C425.9837 68.6395 432.8957 74.4005 441.3437 74.4005L458.7527 74.4005C467.1997 74.4005 474.1117 68.6395 474.1117 61.5995 474.1117 54.5605 467.1997 48.7995 458.7527 48.7995L441.3437 48.7995C432.8957 48.7995 425.9837 54.5605 425.9837 61.5995M123.3919 12.9599C123.3919 19.9999 129.1519 25.7599 136.1919 25.7599 143.2319 25.7599 148.9919 19.9999 148.9919 12.9599 148.9919 5.9199 143.2319.1599 136.1919.1599 129.1519.1599 123.3919 5.9199 123.3919 12.9599M43.0081 112.7997C43.0081 119.8397 49.9201 125.5997 58.3671 125.5997L75.7761 125.5997C84.2241 125.5997 91.1361 119.8397 91.1361 112.7997 91.1361 105.7597 84.2241 99.9997 75.7761 99.9997L58.3671 99.9997C49.9201 99.9997 43.0081 105.7597 43.0081 112.7997"/>
    <path d="M15.3597,202.4003 L138.2397,202.4003 C146.6877,202.4003 153.5997,196.6393 153.5997,189.5993 C153.5997,182.5603 146.6877,176.7993 138.2397,176.7993 L131.5847,176.7993 C123.1357,176.7993 116.2237,171.0403 116.2237,164.0003 C116.2237,156.9603 123.1357,151.2003 131.5847,151.2003 L215.0407,151.2003 C223.4877,151.2003 230.3997,145.4403 230.3997,138.4003 C230.3997,131.3603 223.4877,125.5993 215.0407,125.5993 L114.6877,125.5993 C106.2397,125.5993 99.3287,119.8393 99.3287,112.7993 C99.3287,105.7593 106.2397,100.0003 114.6877,100.0003 L244.7357,100.0003 C253.1837,100.0003 260.0957,94.2403 260.0957,87.2003 C260.0957,80.1603 253.1837,74.4003 244.7357,74.4003 L137.2157,74.4003 C128.7677,74.4003 121.8557,68.6393 121.8557,61.5993 C121.8557,54.5603 128.7677,48.7993 137.2157,48.7993 L398.3367,48.7993 C406.7837,48.7993 413.6957,54.5603 413.6957,61.5993 C413.6957,68.6393 406.7837,74.4003 398.3367,74.4003 L300.5447,74.4003 C292.0957,74.4003 285.1837,80.1603 285.1837,87.2003 C285.1837,94.2403 292.0957,100.0003 300.5447,100.0003 L337.4077,100.0003 C345.8557,100.0003 352.7677,105.7593 352.7677,112.7993 C352.7677,119.8393 345.8557,125.5993 337.4077,125.5993 L337.9207,125.5993 C329.4717,125.5993 322.5597,131.3603 322.5597,138.4003 C322.5597,145.4403 329.4717,151.2003 337.9207,151.2003 L454.1437,151.2003 C462.5917,151.2003 469.5047,156.9603 469.5047,164.0003 C469.5047,171.0403 462.5917,176.7993 454.1437,176.7993 L252.9277,176.7993 C244.4797,176.7993 237.5677,182.5603 237.5677,189.5993 C237.5677,196.6393 244.4797,202.4003 252.9277,202.4003 L276.4797,202.4003 C284.9277,202.4003 291.8397,208.1603 291.8397,215.2003 C291.8397,222.2403 284.9277,228.0003 276.4797,228.0003 L15.3597,228.0003 C6.9127,228.0003 0.0007,222.2403 0.0007,215.2003 C0.0007,208.1603 6.9127,202.4003 15.3597,202.4003"/>
  </g>
</svg>

<?xml version="1.0" encoding="UTF-8"?><svg viewBox="0 0 475 228" xmlns="http://www.w3.org/2000/svg"><g fill="#fceccb" fill-rule="evenodd"><path d="m167.94 12.96c0 7.04 6.912 12.8 15.36 12.8h154.11c8.448 0 15.36-5.76 15.36-12.8s-6.912-12.8-15.36-12.8h-154.11c-8.448 0-15.36 5.76-15.36 12.8m258.05 48.64c0 7.04 6.912 12.801 15.36 12.801h17.409c8.447 0 15.359-5.761 15.359-12.801 0-7.039-6.912-12.8-15.359-12.8h-17.409c-8.448 0-15.36 5.761-15.36 12.8m-302.59-48.64c0 7.04 5.76 12.8 12.8 12.8s12.8-5.76 12.8-12.8-5.76-12.8-12.8-12.8-12.8 5.76-12.8 12.8m-80.384 99.84c0 7.04 6.912 12.8 15.359 12.8h17.409c8.448 0 15.36-5.76 15.36-12.8s-6.912-12.8-15.36-12.8h-17.409c-8.447 0-15.359 5.76-15.359 12.8"/><path d="m15.36 202.4h122.88c8.448 0 15.36-5.761 15.36-12.801 0-7.039-6.912-12.8-15.36-12.8h-6.655c-8.449 0-15.361-5.759-15.361-12.799s6.912-12.8 15.361-12.8h83.456c8.447 0 15.359-5.76 15.359-12.8s-6.912-12.801-15.359-12.801h-100.35c-8.448 0-15.359-5.76-15.359-12.8s6.911-12.799 15.359-12.799h130.05c8.448 0 15.36-5.76 15.36-12.8s-6.912-12.8-15.36-12.8h-107.52c-8.448 0-15.36-5.761-15.36-12.801 0-7.039 6.912-12.8 15.36-12.8h261.12c8.447 0 15.359 5.761 15.359 12.8 0 7.04-6.912 12.801-15.359 12.801h-97.792c-8.449 0-15.361 5.76-15.361 12.8s6.912 12.8 15.361 12.8h36.863c8.448 0 15.36 5.759 15.36 12.799s-6.912 12.8-15.36 12.8h0.513c-8.449 0-15.361 5.761-15.361 12.801s6.912 12.8 15.361 12.8h116.22c8.448 0 15.361 5.76 15.361 12.8s-6.913 12.799-15.361 12.799h-201.22c-8.448 0-15.36 5.761-15.36 12.8 0 7.04 6.912 12.801 15.36 12.801h23.552c8.448 0 15.36 5.76 15.36 12.8s-6.912 12.8-15.36 12.8h-261.12c-8.447 0-15.359-5.76-15.359-12.8s6.912-12.8 15.359-12.8"/></g></svg>
